X:68
M:4/4
L:1/4
K:F
F F3/4 G// A A3/4 B// | c c3/4B// A2 | G G3/4 A// B A/ c/ | d/c/ B/A/ (A G) | F F3/4 G// A2 | c c3/4 B// A2 | d d3/4 d// c F/ F/ | (B A) G2 | .F .C .D E | F G A2 | !sintro!c3/2 c/ c3/2 B/ | A G F2 !eintro!|]
